X:1
T:There Is Peace
T:There Is Peace
T:William Howard Doane
T:Frances Jane (Fanny) Crosby, 1903
T:Public Domain Courtesy of the Cyber Hymnal™
T:Public Domain Courtesy of the Cyber Hymnal™
C:William Howard Doane
Z:Public Domain
Z:Courtesy of the Cyber Hymnal™
%%score ( 1 2 ) ( 3 4 )
L:1/8
Q:1/4=110
M:4/4
K:F
V:1 treble 
V:2 treble 
V:3 bass 
V:4 bass 
V:1
 F>[FG] | [FA]>[FA] [FA]>[FA] [FA]2 [F^G]>[FA] | [Fc]6 [FA]>[FA] | %3
w: 1.~Thro’ the|sac- ri- fice of Je- sus the|Lamb, Thro’ the|
w: 2.~Thro’ the|sac- ri- fice of Je- sus the|Lamb, Thro’ the|
w: 3.~Thro’ the|sac- ri- fice of Je- sus the|Lamb, Un- to|
w: 4.~As in|A- dam we are ru- ined and|lost, So in|
 [EG]2 [EG]>[EG] [EG]2 [DF]>[EG] | [FA]6 F>[FG] | [FA]>[FA] [FA]>[FA] [FA]2 [F^G]>[FA] | %6
w: blood full a- tone- ment is|made, He has|car- ried all our bur- dens of|
w: blood of the Lamb that was|slain, We are|res- cued from our bond- age for-|
w: all who re- pent and be-|lieve, What a|com- fort in the prom- ise He|
w: Christ shall our life be re-|stored, And the|Fa- ther in His mer- cy will|
 [FB]2 [Fd]4 [Fc]>[FA] | [EG]2 [EG]>[EG] [FA]2 [F=B][FB] | [Ec]6 ||"^Refrain" A>B | (z2 =B>)d x6 | %11
w: sor- row, And on|Him our trans- gress- ions were|laid.|||
w: ev- er, And the|way of re- demp- tion is|plain.|There is|* peace|
w: left us— Thro’ the|blood we may par- don re-|ceive.|||
w: own us Thro’ the|blood of our cru- ci- fied|Lord.|||
 (z2 [Af]>)[Af] x6 | [Ge]>[Fd] [Ec]>[EG] [GB]2 [Ec]>[GB] | [FA]6 A>B | (z2 [Fd]>)[Ge] x6 | %15
w: ||||
w: * thro’|the blood, Thro’ the pre- cious blood|He of- fers|* so|
w: ||||
w: ||||
 !fermata!f6 [Fe]>[Fd] | [Fc]>[FA] F>[GB] [FA]2 [EG]>[EG] | F6 |] %18
w: |||
w: free; There is|peace thro’ the blood, O that pre-|cious|
w: |||
w: |||
V:2
 F3/2 x/ | x8 | x8 | x8 | x6 F3/2 x/ | x8 | x8 | x8 | x6 || x2 | (c6 F>F F2) | (c6 F>F F2) | x8 | %13
 x8 | (c6 F>E F2) | (F2 F>F F2) x2 | x2 F3/2 x9/2 | F6 |] %18
V:3
 [F,A,]>[F,B,] | [F,C]>[F,C] [F,C]>[F,C] [F,C]2 [F,=B,]>[F,C] | %2
w: ~ ~|~ ~ ~ ~ ~ ~ ~|
 [F,A,]2 [F,A,]2 [F,A,]2 [F,C]>[F,C] | [C,C]2 [C,C]>[C,C] [C,C]2 [C,C]>[C,C] | %4
w: ~ ~ ~ ~ ~|~ ~ ~ ~ ~ ~|
 [F,C]2 [F,C]2 [F,C]2 [F,A,]>[F,B,] | [F,C]>[F,C] [F,C]>[F,C] [F,C]2 [F,=B,]>[F,C] | %6
w: ~ ~ ~ ~ ~|~ ~ ~ ~ ~ ~ ~|
 [D,B,]2 [B,,B,]4 [F,A,]>[F,C] | [G,C]2 [G,C]>[G,C] [G,=B,]2 [G,D][G,D] | [C,C]6 || F,>G, | %10
w: ~ ~ ~ ~|~ ~ ~ ~ ~ ~|~|~ ~|
 z2 ^G,>B, x6 | z2 [F,C]>[F,C] x6 | [C,C]>[C,C] [C,C]>[C,C] [C,C]2 [C,C]>[C,C] | %13
w: There is|peace ~|~ ~ ~ Thro’ the blood ~|
 [F,C]2 [F,C]2 [F,C]2 z2 | z2 [F,A,]>[G,B,] [A,C]2 B,>[B,^C] x2 | %15
w: ~ ~ ~|~ ~ ~ ~ ~|
 [B,D]2 [B,D]>[B,D] !fermata![B,D]2 [B,,C]>[B,,C] | %16
w: ~ so free; There is peace|
 [C,A,]>[C,C] [D,A,]>[B,,D] [C,C]2 [C,B,]>[C,B,] | [F,A,]6 |] %18
w: ||
V:4
 x2 | x8 | x8 | x8 | x8 | x8 | x8 | x8 | x6 || x2 | (A,6 F,>)F, F,2 | (A,6 F,>)F, F,2 | x8 | x8 | %14
 x6 B,3/2 x5/2 | x8 | x8 | x6 |] %18

